X:1
%
T:Bonnygate Fiddler, The
C:J. Scott Skinner
M:2/4
L:1/8
R:Reel
Q:"With life"
B:Skinner - The Logie Collection (1888, p. 100)
Z:AK/Fiddler's Companion
K:A
G|.A/.A,/.C/.E/ .A/.G/.F/.E/|.A/.B/.c/.d/ .B/(e/e/).d/|.c/.B/.A/.G/ "Dancing Bow".F/.d/ .E/.c/|.D/.B/ .B,/G/ {G}.A/.A,/.A,/:|
g|a/g/f/e/ a/A/A/g/|a/g/f/e/ f/B/B/g/|a/g/f/e/ d/c/B/A/|d/B/e/d/ c/A/A/g/|
a/g/f/e/ a/A/A/g/|a/g/f/e/ f/B/A/G/|"Dancing Bow".A/.e/ .G/.e/ .F/.d/ .E/.c/|.D/.B/ .B,/.G/ .A/.A,/.A,/||

